src/devices/22/media-optical-data.svg

<svg
   viewBox="0 0 22 22 "
   version="1.1">
  <defs>
    <style
       type="text/css"
       id="current-color-scheme"> .ColorScheme-Text { color:#363636; } </style>
  </defs>
  <path
     class="ColorScheme-Text" fill="currentColor"  d="M 10.990234 2 A 9 9 0 0 0 2 11 A 9 9 0 0 0 11 20 A 9 9 0 0 0 14 19.484375 L 14 18.414062 A 7.9999999 8 0 0 1 11 19 A 7.9999999 8 0 0 1 3 11 A 7.9999999 8 0 0 1 11 3 A 7.9999999 8 0 0 1 19 11 A 7.9999999 8 0 0 1 18.9375 12 L 19.943359 12 A 9 9 0 0 0 20 11 A 9 9 0 0 0 11 2 A 9 9 0 0 0 10.990234 2 z M 11 8 C 9.32 8 8 9.32 8 11 C 8 12.68 9.32 14 11 14 C 12.68 14 14 12.68 14 11 C 14 9.32 12.68 8 11 8 z M 11.005859 9.0058594 A 2.002 2.002 0 0 1 13.001953 11.001953 A 2.002 2.002 0 0 1 11.005859 12.998047 C 9.9078594 12.998047 8.9921875 12.100963 8.9921875 11.001953 C 8.9921875 9.9039531 9.9078294 9.0058594 11.005859 9.0058594 z M 15 13 L 15 20 L 18 20 L 20 18 L 20 13 L 15 13 z M 16 14 L 19 14 L 19 18 L 18 18 L 18 19 L 16 19 L 16 14 z "/>
</svg>

<svg viewBox="0 0 22 22">
    <path fill="currentColor" d="M10.99 2A9 9 0 0 0 2 11a9 9 0 0 0 9 9 9 9 0 0 0 3-.516v-1.07A8 8 0 0 1 11 19a8 8 0 0 1-8-8 8 8 0 0 1 8-8 8 8 0 0 1 8 8 8 8 0 0 1-.062 1h1.005A9 9 0 0 0 20 11a9 9 0 0 0-9-9 9 9 0 0 0-.01 0zM11 8c-1.68 0-3 1.32-3 3s1.32 3 3 3 3-1.32 3-3-1.32-3-3-3zm.006 1.006a2.002 2.002 0 0 1 1.996 1.996 2.002 2.002 0 0 1-1.996 1.996c-1.098 0-2.014-.897-2.014-1.996 0-1.098.916-1.996 2.014-1.996zM15 13v7h3l2-2v-5h-5zm1 1h3v4h-1v1h-2v-5z" style="color:#050505;opacity:.7"/>
</svg>
